img/dropdown_icon.svg

<svg xmlns="http://www.w3.org/2000/svg" width="15" height="9" viewBox="0 0 15 9">
  <path fill="#FFF" d="M7.5,8.9629412 C7.3310294,8.9629412 7.1702941,8.8902941 7.0585294,8.7635294 L0.038382353,0.791911765 L0.92132353,0.0144117647 L7.5,7.4847059 L14.0786764,0.0144117647 L14.9616177,0.791911765 L7.9414706,8.76367645 C7.8297059,8.8904412 7.6689706,8.9629412 7.5,8.9629412 Z"/>
</svg>

<svg height="9" viewBox="0 0 15 9" width="15" xmlns="http://www.w3.org/2000/svg"><path d="m7.5 8.9629412c-.1689706 0-.3297059-.0726471-.4414706-.1994118l-7.02014705-7.97161763.88294118-.77750001 6.57867647 7.47029414 6.5786764-7.47029414.8829413.77750001-7.0201471 7.97176468c-.1117647.12676475-.2725.19926475-.4414706.19926475z" fill="#fff"/></svg>
